X:1
T: Miss Amelia Stewart
C:Duncan Macintyre
R:Strathspey
Q: 128
K:F
M:4/4
L:1/16
|:f2|F3G AF3 cF3 Af3|agfe f2F2 AG3 GA3|F3G AF3 cF3 Af3|agfe f2d2 cA3 A2f2|
F3G AF3 cF3 Af3|agfe f2F2 AG3 GA3|F3G AF3 cF3 Af3|agfe f2d2 cA3 A2c2|
f3g fc3 Aa3 fc3|f3a dcBA BG3 Ge3|fefg agfe fc3 df3|cf3 f3d ca3 a3g|
fa3 df3 cf3 Af3|agfe f2F2 AG3 GA3|F3G Ac3 de3 fg3|agfe fd3 cA3 A2:|
